assets/img/microillustration/choose-template.svg

<?xml version="1.0" encoding="UTF-8"?>
<svg viewBox="0 0 106 106" version="1.1" xmlns="http://www.w3.org/2000/svg" xmlns:xlink="http://www.w3.org/1999/xlink">
    <title>4. Elements_Microillustrations/Choose_template</title>
    <g id="4.-Elements_Microillustrations/Choose_template" stroke="none" stroke-width="1" fill="none" fill-rule="evenodd">
        <path d="M83.9787234,53 C90.5711086,49.083148 95,41.840584 95,33.5478877 C95,21.0951882 85.0195347,11 72.7083489,11 C64.1606321,11 56.7408237,15.868314 53,23.0104459 C49.2591763,15.868314 41.8393679,11 33.2916511,11 C20.9804653,11 11,21.0951882 11,33.5478877 C11,41.840584 15.4288914,49.083148 22.0212766,53 C15.4288914,56.916852 11,64.159416 11,72.4521123 C11,84.9048118 20.9804653,95 33.2916511,95 C41.8393679,95 49.2591763,90.131686 53,82.9895541 C56.7408237,90.131686 64.1606321,95 72.7083489,95 C85.0195347,95 95,84.9048118 95,72.4521123 C95,64.159416 90.5711086,56.916852 83.9787234,53" id="Fill-4" fill="#009BBD"></path>
        <g id="Icons/1.Concepts/Check" transform="translate(33.000000, 33.000000)" fill="#F6F6F6">
            <path d="M35.8916004,9.10869553 C35.4137344,8.63043482 34.646871,8.63043482 34.1685539,9.10869553 L15.6349734,29.1729164 L5.83189716,19.5311794 C5.3534673,19.0529187 4.58671665,19.0529187 4.10873782,19.5311794 C3.63042073,20.0091019 3.63042073,20.7757622 4.10873782,21.2541356 L13.9123778,30.8953089 L15.6261783,32.6181523 L17.35802,30.8953089 L35.8916004,10.8316517 C36.3694665,10.3532783 36.3694665,9.58661801 35.8916004,9.10869553 Z" id="Fill-4"></path>
        </g>
    </g>
</svg>

<?xml version="1.0" encoding="UTF-8"?>
<svg version="1.1" viewBox="0 0 106 106" xmlns="http://www.w3.org/2000/svg">
<title>4. Elements_Microillustrations/Choose_template</title>
<g fill-rule="evenodd">
<path id="a" d="m83.979 53c6.5924-3.9169 11.021-11.159 11.021-19.452 0-12.453-9.9805-22.548-22.292-22.548-8.5477 0-15.968 4.8683-19.708 12.01-3.7408-7.1421-11.161-12.01-19.708-12.01-12.311 0-22.292 10.095-22.292 22.548 0 8.2927 4.4289 15.535 11.021 19.452-6.5924 3.9169-11.021 11.159-11.021 19.452 0 12.453 9.9805 22.548 22.292 22.548 8.5477 0 15.968-4.8683 19.708-12.01 3.7408 7.1421 11.161 12.01 19.708 12.01 12.311 0 22.292-10.095 22.292-22.548 0-8.2927-4.4289-15.535-11.021-19.452" fill="#009BBD"/>
<g transform="translate(33 33)" fill="#F6F6F6">
<path d="m35.892 9.1087c-0.47787-0.47826-1.2447-0.47826-1.723 0l-18.534 20.064-9.8031-9.6417c-0.47843-0.47826-1.2452-0.47826-1.7232 0-0.47832 0.47792-0.47832 1.2446 0 1.723l9.8036 9.6412 1.7138 1.7228 1.7318-1.7228 18.534-20.064c0.47787-0.47837 0.47787-1.245 0-1.723z"/>
</g>
</g>
</svg>
